static/img/index/partners/ClickUp_monochrome.svg

<svg width="284" height="69" viewBox="0 0 284 69" fill="none" xmlns="http://www.w3.org/2000/svg">
<path fill-rule="evenodd" clip-rule="evenodd" d="M0.794922 50.8828L10.9181 43.1289C16.2938 50.1473 22.0026 53.3816 28.364 53.3816C34.6902 53.3816 40.2421 50.1846 45.3769 43.2217L55.6395 50.79C48.2361 60.8291 39.0252 66.133 28.364 66.133C17.7381 66.133 8.44188 60.8664 0.794922 50.8828Z" fill="black"/>
<path fill-rule="evenodd" clip-rule="evenodd" d="M28.3316 17.1831L10.314 32.7086L1.99023 23.0487L28.3674 0.319824L54.5396 23.0664L46.1748 32.6909L28.3316 17.1831Z" fill="black"/>
<rect x="114.54" y="13.427" width="10.2012" height="42.5049" fill="black"/>
<path fill-rule="evenodd" clip-rule="evenodd" d="M93.9236 56.1193C87.91 56.1193 82.8987 54.1705 78.8339 50.2728C74.7692 46.3194 72.7646 41.2524 72.7646 35.0717C72.7646 28.8354 74.8249 23.7127 78.8896 19.7037C83.01 15.6389 88.0213 13.6344 93.9793 13.6344C101.329 13.6344 107.844 16.8082 111.63 21.7639L105.004 28.7241C101.83 25.3275 98.3781 23.6014 94.6474 23.6014C91.4736 23.6014 88.8566 24.6593 86.685 26.8309C84.5691 29.0025 83.5112 31.7309 83.5112 35.0161C83.5112 38.1899 84.5691 40.8626 86.685 43.0342C88.8566 45.1501 91.4736 46.208 94.5918 46.208C98.6565 46.208 102.22 44.4262 105.171 40.9183L112.076 47.5444C110.183 50.05 107.621 52.1102 104.447 53.725C101.274 55.3398 97.7656 56.1193 93.9236 56.1193Z" fill="black"/>
<path fill-rule="evenodd" clip-rule="evenodd" d="M140.042 16.8273C140.042 19.8791 137.569 22.353 134.517 22.353C131.465 22.353 128.991 19.8791 128.991 16.8273C128.991 13.7756 131.465 11.3017 134.517 11.3017C137.569 11.3017 140.042 13.7756 140.042 16.8273ZM139.617 24.9032H129.416V55.9318H139.617V24.9032Z" fill="black"/>
<path fill-rule="evenodd" clip-rule="evenodd" d="M159.336 56.1749C154.492 56.1749 150.594 54.6715 147.532 51.6647C144.525 48.6579 143.021 44.8159 143.021 40.083C143.021 35.3501 144.525 31.508 147.587 28.5013C150.65 25.4945 154.603 23.9911 159.503 23.9911C165.907 23.9911 171.53 27.1092 174.147 32.9558L166.296 37.0762C164.737 34.4592 162.566 33.1228 159.726 33.1228C157.666 33.1228 155.995 33.791 154.659 35.1273C153.378 36.4637 152.71 38.1341 152.71 40.083C152.71 44.1477 155.661 47.1545 159.615 47.1545C162.454 47.1545 165.071 45.5954 166.185 43.2011L174.036 47.8784C171.363 53.0011 165.851 56.1749 159.336 56.1749Z" fill="black"/>
<path fill-rule="evenodd" clip-rule="evenodd" d="M186.799 13.427H176.598V55.9318H186.799V45.1112L187.994 43.9965L197.319 55.9318H209.186L194.859 37.5947L208.469 24.9032H196.004L186.799 33.4876V13.427Z" fill="black"/>
<path fill-rule="evenodd" clip-rule="evenodd" d="M211.026 39.8701V13.427H221.653V39.278C221.653 43.8996 224.346 46.1268 228.241 46.1268C232.079 46.1268 234.829 43.7882 234.829 39.278V13.427H245.455V39.8701C245.455 52.0086 236.933 56.5745 228.241 56.5745C219.605 56.5745 211.026 52.0086 211.026 39.8701Z" fill="black"/>
<path fill-rule="evenodd" clip-rule="evenodd" d="M268.408 56.7819C276.624 56.7819 283.285 49.5505 283.285 40.63C283.285 31.7096 276.624 24.4782 268.408 24.4782C265.059 24.4782 261.969 25.6797 259.482 27.7072V24.9033H249.706V68.6833H259.482V53.5529C261.969 55.5804 265.059 56.7819 268.408 56.7819ZM259.482 40.6466V40.6134C259.491 36.6303 262.627 33.4042 266.495 33.4042C270.369 33.4042 273.509 36.6393 273.509 40.63C273.509 44.6207 270.369 47.8558 266.495 47.8558C262.627 47.8558 259.491 44.6297 259.482 40.6466Z" fill="black"/>
</svg>

<svg width="284" height="69" fill="none" xmlns="http://www.w3.org/2000/svg"><path fill-rule="evenodd" clip-rule="evenodd" d="m.795 50.883 10.123-7.754c5.376 7.018 11.085 10.253 17.446 10.253 6.326 0 11.878-3.197 17.013-10.16l10.262 7.568c-7.403 10.04-16.614 15.343-27.275 15.343-10.626 0-19.922-5.267-27.57-15.25Zm27.537-33.7L10.314 32.71 1.99 23.05 28.367.319 54.54 23.067l-8.365 9.625-17.843-15.508Z" fill="#000"/><path fill="#000" d="M114.54 13.427h10.201v42.505H114.54z"/><path fill-rule="evenodd" clip-rule="evenodd" d="M93.924 56.12c-6.014 0-11.025-1.95-15.09-5.847-4.065-3.954-6.07-9.02-6.07-15.201 0-6.237 2.06-11.36 6.126-15.368 4.12-4.065 9.131-6.07 15.09-6.07 7.349 0 13.864 3.174 17.65 8.13l-6.626 6.96c-3.174-3.396-6.626-5.123-10.357-5.123-3.173 0-5.79 1.058-7.962 3.23-2.116 2.172-3.174 4.9-3.174 8.185 0 3.174 1.058 5.847 3.174 8.018 2.172 2.116 4.789 3.174 7.907 3.174 4.064 0 7.628-1.782 10.579-5.29l6.905 6.626c-1.893 2.506-4.455 4.566-7.629 6.181-3.173 1.615-6.681 2.394-10.523 2.394Zm46.118-39.293a5.525 5.525 0 1 1-11.051 0 5.526 5.526 0 0 1 11.051 0Zm-.425 8.076h-10.201v31.029h10.201V24.903Zm19.719 31.272c-4.844 0-8.742-1.503-11.804-4.51-3.007-3.007-4.511-6.85-4.511-11.582 0-4.733 1.504-8.575 4.566-11.582 3.063-3.007 7.016-4.51 11.916-4.51 6.404 0 12.027 3.118 14.644 8.965l-7.851 4.12c-1.559-2.617-3.73-3.953-6.57-3.953-2.06 0-3.731.668-5.067 2.004-1.281 1.337-1.949 3.007-1.949 4.956 0 4.065 2.951 7.072 6.905 7.072 2.839 0 5.456-1.56 6.57-3.954l7.851 4.677c-2.673 5.123-8.185 8.297-14.7 8.297Zm27.463-42.748h-10.201v42.505h10.201v-10.82l1.195-1.116 9.325 11.936h11.867l-14.327-18.337 13.61-12.692h-12.465l-9.205 8.585V13.427Zm24.227 26.443V13.427h10.627v25.851c0 4.622 2.693 6.849 6.588 6.849 3.838 0 6.588-2.339 6.588-6.849V13.427h10.626V39.87c0 12.139-8.522 16.705-17.214 16.705-8.636 0-17.215-4.566-17.215-16.705Zm57.382 16.912c8.216 0 14.877-7.231 14.877-16.152 0-8.92-6.661-16.152-14.877-16.152-3.349 0-6.439 1.202-8.926 3.23v-2.805h-9.776v43.78h9.776v-15.13c2.487 2.027 5.577 3.229 8.926 3.229Zm-8.926-16.135v-.034c.009-3.983 3.145-7.209 7.013-7.209 3.874 0 7.014 3.235 7.014 7.226 0 3.99-3.14 7.226-7.014 7.226-3.868 0-7.004-3.226-7.013-7.21Z" fill="#000"/></svg>
